apps/www/public/images/logos/publicity/archive/resend.svg

<svg width="90" height="22" viewBox="0 0 90 22" fill="none" xmlns="http://www.w3.org/2000/svg">
<g clip-path="url(#clip0_114_314)">
<path d="M1.43701 20.5736V1.45569H9.90352C11.087 1.45569 12.1612 1.7288 13.1262 2.27503C14.0912 2.80305 14.8469 3.52224 15.3931 4.43262C15.9575 5.343 16.2398 6.38083 16.2398 7.54611C16.2398 8.69318 15.9575 9.74012 15.3931 10.6869C14.8469 11.6155 14.0912 12.3529 13.1262 12.8991C12.1612 13.4453 11.087 13.7185 9.90352 13.7185H5.39715V20.5736H1.43701ZM12.2796 20.5736L7.41819 11.9432L11.6241 11.2604L17.0318 20.6009L12.2796 20.5736ZM5.39715 10.3865H9.71234C10.2039 10.3865 10.6318 10.2772 10.996 10.0587C11.3783 9.82205 11.6696 9.50341 11.8699 9.10285C12.0702 8.68409 12.1704 8.2198 12.1704 7.70998C12.1704 7.16375 12.052 6.69036 11.8153 6.28979C11.5786 5.88923 11.2327 5.57969 10.7775 5.3612C10.3223 5.12451 9.79427 5.00616 9.19342 5.00616H5.39715V10.3865Z" fill="#B4B4B4"/>
<path d="M24.9708 20.8467C23.4049 20.8467 22.0302 20.5281 20.8467 19.8908C19.6815 19.2535 18.7712 18.3795 18.1156 17.2689C17.4784 16.1583 17.1597 14.8837 17.1597 13.4453C17.1597 12.3165 17.3418 11.2877 17.7059 10.3591C18.0701 9.43056 18.5799 8.62944 19.2353 7.95575C19.8908 7.26387 20.6647 6.73585 21.5569 6.37169C22.4672 5.98934 23.4504 5.79816 24.5065 5.79816C25.4897 5.79816 26.4 5.98024 27.2377 6.34438C28.0752 6.70854 28.7944 7.21834 29.3953 7.87382C30.0143 8.51108 30.4877 9.2758 30.8155 10.168C31.1432 11.0419 31.2888 11.9887 31.2524 13.0083L31.2251 14.21H19.6178L18.9895 11.834H28.0297L27.5927 12.3256V11.7247C27.5563 11.2331 27.3924 10.7961 27.101 10.4138C26.828 10.0132 26.473 9.70367 26.036 9.48518C25.599 9.24849 25.1073 9.13014 24.561 9.13014C23.76 9.13014 23.0772 9.28491 22.5127 9.59443C21.9665 9.90396 21.5478 10.3591 21.2564 10.96C20.9651 11.5608 20.8194 12.2892 20.8194 13.1449C20.8194 14.0188 21.0015 14.7744 21.3657 15.4117C21.7481 16.049 22.276 16.5496 22.9498 16.9138C23.6416 17.2597 24.4518 17.4328 25.3804 17.4328C26.0177 17.4328 26.6004 17.3327 27.1284 17.1323C27.6564 16.932 28.2207 16.5861 28.8217 16.0945L30.6789 18.6891C30.1508 19.1625 29.5681 19.563 28.931 19.8908C28.2937 20.2003 27.6382 20.437 26.9644 20.6009C26.2908 20.7647 25.6263 20.8467 24.9708 20.8467Z" fill="#B4B4B4"/>
<path d="M37.6138 20.8467C36.2664 20.8467 35.0647 20.6282 34.0087 20.1912C32.9709 19.7361 32.1334 19.1169 31.4961 18.334L33.9268 16.2584C34.473 16.8592 35.092 17.2962 35.784 17.5693C36.4759 17.8243 37.1677 17.9517 37.8596 17.9517C38.1327 17.9517 38.3785 17.9244 38.597 17.8697C38.8337 17.797 39.034 17.7059 39.1979 17.5966C39.3617 17.4692 39.4801 17.3235 39.5529 17.1596C39.644 16.9776 39.6895 16.7864 39.6895 16.5861C39.6895 16.1856 39.5256 15.876 39.1979 15.6575C39.0158 15.5483 38.7336 15.4299 38.3512 15.3025C37.9689 15.1568 37.4773 15.0021 36.8764 14.8382C35.9478 14.6015 35.1558 14.3284 34.5003 14.0188C33.863 13.6911 33.3533 13.327 32.9709 12.9264C32.6432 12.544 32.3882 12.1344 32.2062 11.6974C32.0423 11.2422 31.9604 10.7415 31.9604 10.1953C31.9604 9.53981 32.1061 8.94807 32.3974 8.42004C32.6886 7.87382 33.0893 7.40953 33.5991 7.02717C34.1271 6.64481 34.728 6.35349 35.4016 6.15321C36.0752 5.93472 36.7853 5.82547 37.5319 5.82547C38.2784 5.82547 39.0067 5.91651 39.7168 6.09858C40.4269 6.28067 41.0824 6.54467 41.6832 6.89061C42.3022 7.21835 42.8394 7.60981 43.2946 8.065L41.2189 10.3591C40.8912 10.0496 40.518 9.76741 40.0992 9.5125C39.6986 9.2576 39.2798 9.05731 38.8428 8.91165C38.4059 8.766 38.0143 8.69316 37.6684 8.69316C37.3589 8.69316 37.0767 8.72047 36.8218 8.77509C36.5851 8.82971 36.3848 8.92075 36.2209 9.0482C36.0571 9.15745 35.9297 9.29401 35.8386 9.45787C35.7658 9.62174 35.7293 9.80381 35.7293 10.0041C35.7293 10.2044 35.7748 10.3956 35.8659 10.5776C35.9751 10.7597 36.1209 10.9145 36.3029 11.0419C36.5032 11.1512 36.7945 11.2786 37.1768 11.4243C37.5774 11.57 38.1146 11.7338 38.7882 11.9159C39.6622 12.1526 40.3996 12.4166 41.0004 12.7079C41.6194 12.9992 42.111 13.3361 42.4752 13.7184C42.7848 14.0462 43.0123 14.4194 43.158 14.8382C43.3037 15.257 43.3765 15.7213 43.3765 16.2311C43.3765 17.1232 43.1216 17.9152 42.6118 18.6071C42.1202 19.2991 41.4374 19.8453 40.5634 20.2458C39.6895 20.6463 38.7063 20.8467 37.6138 20.8467Z" fill="#B4B4B4"/>
<path d="M51.6313 20.8467C50.0655 20.8467 48.6909 20.5281 47.5073 19.8908C46.3421 19.2535 45.4317 18.3795 44.7762 17.2689C44.1389 16.1583 43.8203 14.8837 43.8203 13.4453C43.8203 12.3165 44.0023 11.2877 44.3665 10.3591C44.7307 9.43056 45.2405 8.62944 45.896 7.95575C46.5514 7.26387 47.3253 6.73585 48.2174 6.37169C49.1279 5.98934 50.1111 5.79816 51.1671 5.79816C52.1503 5.79816 53.0607 5.98024 53.8982 6.34438C54.7357 6.70854 55.4549 7.21834 56.0558 7.87382C56.6748 8.51108 57.1482 9.2758 57.476 10.168C57.8037 11.0419 57.9494 11.9887 57.9129 13.0083L57.8856 14.21H46.2783L45.6502 11.834H54.6902L54.2532 12.3256V11.7247C54.2168 11.2331 54.0529 10.7961 53.7616 10.4138C53.4885 10.0132 53.1335 9.70367 52.6965 9.48518C52.2595 9.24849 51.7679 9.13014 51.2217 9.13014C50.4205 9.13014 49.7377 9.28491 49.1733 9.59443C48.6271 9.90396 48.2083 10.3591 47.917 10.96C47.6257 11.5608 47.48 12.2892 47.48 13.1449C47.48 14.0188 47.6621 14.7744 48.0262 15.4117C48.4086 16.049 48.9367 16.5496 49.6103 16.9138C50.3022 17.2597 51.1124 17.4328 52.041 17.4328C52.6783 17.4328 53.2609 17.3327 53.7889 17.1323C54.317 16.932 54.8814 16.5861 55.4822 16.0945L57.3394 18.6891C56.8113 19.1625 56.2288 19.563 55.5915 19.8908C54.9542 20.2003 54.2987 20.437 53.6251 20.6009C52.9514 20.7647 52.2868 20.8467 51.6313 20.8467Z" fill="#B4B4B4"/>
<path d="M59.4126 20.5736V6.12589H63.1269L63.2362 9.07551L62.4715 9.40325C62.6718 8.74778 63.0268 8.15604 63.5366 7.62802C64.0647 7.08179 64.6928 6.64481 65.4211 6.31707C66.1495 5.98934 66.9142 5.82547 67.7152 5.82547C68.8077 5.82547 69.7181 6.04396 70.4464 6.48094C71.1929 6.91792 71.7483 7.5825 72.1124 8.47467C72.4947 9.34863 72.6859 10.432 72.6859 11.7247V20.5736H68.8077V12.0251C68.8077 11.3697 68.7167 10.8234 68.5346 10.3865C68.3525 9.94948 68.0703 9.63085 67.6879 9.43056C67.3239 9.23027 66.8686 9.13925 66.3224 9.15745C65.8854 9.15745 65.4757 9.23029 65.0933 9.37594C64.7293 9.50339 64.4106 9.69458 64.1375 9.94948C63.8826 10.2044 63.6732 10.4957 63.5093 10.8234C63.3637 11.1512 63.2908 11.5062 63.2908 11.8886V20.5736H61.379C60.9603 20.5736 60.587 20.5736 60.2592 20.5736C59.9315 20.5736 59.6494 20.5736 59.4126 20.5736Z" fill="#B4B4B4"/>
<path d="M80.6909 20.8467C79.4164 20.8467 78.2785 20.5281 77.277 19.8908C76.2938 19.2353 75.5109 18.3522 74.9282 17.2416C74.3638 16.1127 74.0815 14.8109 74.0815 13.3361C74.0815 11.8977 74.3638 10.6141 74.9282 9.48519C75.5109 8.33812 76.2938 7.44595 77.277 6.80868C78.2785 6.15321 79.4164 5.82548 80.6909 5.82548C81.3646 5.82548 82.011 5.93472 82.63 6.15321C83.2673 6.3535 83.8317 6.63572 84.3233 6.99986C84.8332 7.36402 85.2429 7.77369 85.5523 8.22887C85.8619 8.66585 86.0349 9.12105 86.0712 9.59444L85.088 9.78561V0.36322H88.9935V20.5736H85.3065L85.1426 17.2416L85.9073 17.3235C85.871 17.7787 85.7071 18.2156 85.4157 18.6345C85.1245 19.0533 84.733 19.4356 84.2413 19.7815C83.768 20.1093 83.2218 20.3732 82.6027 20.5736C82.0018 20.7556 81.3646 20.8467 80.6909 20.8467ZM81.5648 17.6239C82.2932 17.6239 82.9304 17.4419 83.4766 17.0777C84.0229 16.7135 84.4508 16.2129 84.7603 15.5756C85.0698 14.9383 85.2246 14.1919 85.2246 13.3361C85.2246 12.4985 85.0698 11.7611 84.7603 11.1239C84.4508 10.4866 84.0229 9.9859 83.4766 9.62175C82.9304 9.25761 82.2932 9.07552 81.5648 9.07552C80.8366 9.07552 80.1993 9.25761 79.6531 9.62175C79.1251 9.9859 78.7063 10.4866 78.3967 11.1239C78.1055 11.7611 77.9597 12.4985 77.9597 13.3361C77.9597 14.1919 78.1055 14.9383 78.3967 15.5756C78.7063 16.2129 79.1251 16.7135 79.6531 17.0777C80.1993 17.4419 80.8366 17.6239 81.5648 17.6239Z" fill="#B4B4B4"/>
</g>
<defs>
<clipPath id="clip0_114_314">
<rect width="88.7617" height="21.849" fill="white" transform="translate(0.317871 0.0900879)"/>
</clipPath>
</defs>
</svg>

<svg xmlns="http://www.w3.org/2000/svg" width="90" height="22" fill="none" viewBox="0 0 90 22"><g fill="#b4b4b4" clip-path="url(#a)"><path d="M1.437 20.574V1.456h8.467q1.774 0 3.222.819a5.9 5.9 0 0 1 2.267 2.158q.847 1.365.847 3.113 0 1.72-.847 3.14a6 6 0 0 1-2.267 2.213q-1.448.82-3.222.82H5.397v6.855zm10.843 0-4.862-8.63 4.206-.684 5.408 9.34zM5.397 10.386h4.315q.738 0 1.284-.327.573-.356.874-.956.3-.628.3-1.393 0-.82-.355-1.42-.354-.6-1.037-.929-.684-.354-1.585-.355H5.397zM24.97 20.847q-2.348 0-4.123-.956a7 7 0 0 1-2.731-2.622q-.956-1.665-.956-3.824 0-1.693.546-3.086a7.1 7.1 0 0 1 1.53-2.403 6.6 6.6 0 0 1 2.32-1.584 7.5 7.5 0 0 1 2.95-.574q1.475 0 2.732.546a6.3 6.3 0 0 1 2.157 1.53 6.4 6.4 0 0 1 1.42 2.294q.492 1.31.437 2.84l-.027 1.202H19.618l-.628-2.376h9.04l-.437.492v-.601a2.4 2.4 0 0 0-.492-1.311q-.41-.6-1.065-.929a3.05 3.05 0 0 0-1.475-.355q-1.202 0-2.048.464-.82.465-1.257 1.366t-.437 2.185q0 1.311.547 2.267a4.06 4.06 0 0 0 1.584 1.502q1.038.519 2.43.519.956 0 1.748-.3.792-.302 1.694-1.038l1.857 2.594a8.3 8.3 0 0 1-1.748 1.202 9.8 9.8 0 0 1-1.967.71 8.4 8.4 0 0 1-1.993.246M37.614 20.847q-2.022 0-3.605-.656-1.557-.682-2.513-1.857l2.43-2.076q.82.901 1.858 1.311a6 6 0 0 0 2.076.383q.41 0 .737-.082.355-.11.6-.273.247-.192.356-.437.137-.273.137-.574 0-.6-.492-.928-.273-.165-.847-.355-.573-.218-1.475-.465-1.392-.354-2.376-.82-.956-.49-1.53-1.092a4.6 4.6 0 0 1-.764-1.229 4.4 4.4 0 0 1-.246-1.502q0-.983.437-1.775A4.2 4.2 0 0 1 33.6 7.027a5.9 5.9 0 0 1 1.803-.874 6.9 6.9 0 0 1 2.13-.328q1.12 0 2.185.274 1.065.273 1.966.792.929.491 1.612 1.174l-2.076 2.294q-.492-.465-1.12-.847a5.7 5.7 0 0 0-1.256-.6q-.656-.219-1.175-.219-.464 0-.846.082a1.5 1.5 0 0 0-.601.273q-.246.164-.382.41a1.3 1.3 0 0 0-.11.546q0 .3.137.574.165.273.437.464.3.165.874.382.6.219 1.611.492 1.311.355 2.212.792.93.437 1.475 1.01.465.492.683 1.12t.218 1.393q0 1.338-.764 2.376-.738 1.038-2.049 1.639-1.31.6-2.95.6M51.631 20.847q-2.348 0-4.124-.956a7 7 0 0 1-2.73-2.622q-.957-1.665-.957-3.824 0-1.693.547-3.086a7.1 7.1 0 0 1 1.529-2.403 6.6 6.6 0 0 1 2.321-1.584 7.5 7.5 0 0 1 2.95-.574q1.475 0 2.731.546a6.3 6.3 0 0 1 2.158 1.53 6.4 6.4 0 0 1 1.42 2.294q.492 1.31.437 2.84l-.027 1.202H46.278l-.628-2.376h9.04l-.437.492v-.601a2.4 2.4 0 0 0-.491-1.311q-.41-.6-1.065-.929a3.05 3.05 0 0 0-1.475-.355q-1.202 0-2.049.464-.82.465-1.256 1.366t-.437 2.185q0 1.311.546 2.267a4.06 4.06 0 0 0 1.584 1.502q1.038.519 2.431.519.956 0 1.748-.3.792-.302 1.693-1.038l1.857 2.594a8.3 8.3 0 0 1-1.747 1.202 9.8 9.8 0 0 1-1.967.71 8.4 8.4 0 0 1-1.994.246M59.413 20.574V6.126h3.714l.11 2.95-.766.327q.3-.983 1.066-1.775a6 6 0 0 1 1.884-1.31 5.5 5.5 0 0 1 2.294-.493q1.64 0 2.731.656 1.12.655 1.666 1.994.574 1.31.574 3.25v8.849h-3.878v-8.549q0-.983-.273-1.639-.273-.655-.847-.955-.546-.3-1.366-.274-.655 0-1.229.219a2.7 2.7 0 0 0-.956.573 3.3 3.3 0 0 0-.628.874 2.6 2.6 0 0 0-.218 1.066v8.685h-3.878M80.69 20.847q-1.911 0-3.413-.956-1.474-.984-2.349-2.65-.846-1.692-.846-3.905 0-2.158.846-3.85.875-1.722 2.349-2.677 1.502-.984 3.414-.984 1.01 0 1.939.328A5.7 5.7 0 0 1 84.323 7q.765.546 1.23 1.229.464.656.518 1.365l-.983.192V.363h3.906v20.21h-3.687l-.164-3.331.764.081q-.054.684-.491 1.311a4.7 4.7 0 0 1-1.175 1.148 6.2 6.2 0 0 1-1.638.792 6.6 6.6 0 0 1-1.912.273m.875-3.223q1.092 0 1.912-.546a3.7 3.7 0 0 0 1.283-1.502q.465-.957.465-2.24 0-1.257-.465-2.212a3.7 3.7 0 0 0-1.283-1.502q-.82-.546-1.912-.546t-1.912.546q-.792.546-1.256 1.502-.437.955-.437 2.212 0 1.284.437 2.24.464.955 1.256 1.502.82.546 1.912.546"/></g><defs><clipPath id="a"><path fill="#fff" d="M.318.09H89.08v21.85H.318z"/></clipPath></defs></svg>
